X: 1
T: Nay Nay's
M: 6/8
L: 1/8
R: jig
K: Emin
A |BEE dBA|FAB D3|A,B,D FED|FEE E3|B,DE B3|gfe d3|(BdB)
AFA|BEE E2:|
d|fed gfe|agf e3|BEE FED|A,B,D E3|gfe agf|
BFA D3|A,B,D FED|FEE E2||
